X: 7602
T: Cofey's
R: jig
M: 6/8
K: Dmixolydian
|:dcA GED|Ddc ~d3|dcA GED|CEG ~c3|
dcA GED|Ddc ~d3|e/f/ge ded|1 cAA ABc:|2 cAA A2e||
|:efg eaf|gdB c2d|efg eag|ge^c def|
~g3 agf|gdB c2d|e/f/ge ded|1 cAA A2e:|2 cAA ABc||

